src/images/dist/icons/soc-inst-icon.svg

<svg width="12" height="12" viewBox="0 0 12 12" fill="none" xmlns="http://www.w3.org/2000/svg">
<path d="M4.00048 6C4.00048 4.89547 4.89567 3.99984 6.00024 3.99984C7.10481 3.99984 8.00048 4.89547 8.00048 6C8.00048 7.10453 7.10481 8.00016 6.00024 8.00016C4.89567 8.00016 4.00048 7.10453 4.00048 6ZM2.91919 6C2.91919 7.7016 4.29857 9.08093 6.00024 9.08093C7.70191 9.08093 9.08129 7.7016 9.08129 6C9.08129 4.2984 7.70191 2.91907 6.00024 2.91907C4.29857 2.91907 2.91919 4.2984 2.91919 6ZM8.48324 2.79691C8.48318 2.93931 8.52535 3.07854 8.60442 3.19697C8.68349 3.31541 8.79591 3.40774 8.92745 3.46228C9.059 3.51683 9.20377 3.53115 9.34345 3.50342C9.48314 3.4757 9.61146 3.40717 9.7122 3.30652C9.81294 3.20587 9.88156 3.0776 9.9094 2.93795C9.93724 2.79829 9.92304 2.65352 9.86859 2.52193C9.81415 2.39035 9.72191 2.27786 9.60353 2.1987C9.48515 2.11954 9.34596 2.07726 9.20355 2.0772H9.20326C9.01238 2.07729 8.82933 2.15314 8.69433 2.28808C8.55932 2.42302 8.4834 2.60603 8.48324 2.79691V2.79691ZM3.57614 10.8839C2.99114 10.8572 2.67318 10.7598 2.46187 10.6775C2.18174 10.5684 1.98186 10.4385 1.7717 10.2287C1.56155 10.0188 1.43147 9.81912 1.32288 9.53899C1.24051 9.32779 1.14307 9.00974 1.11648 8.42477C1.08739 7.79232 1.08158 7.60234 1.08158 6.00005C1.08158 4.39776 1.08787 4.2083 1.11648 3.57533C1.14312 2.99035 1.24128 2.67293 1.32288 2.4611C1.43195 2.18098 1.56184 1.9811 1.7717 1.77096C1.98157 1.56082 2.18126 1.43074 2.46187 1.32216C2.67308 1.23979 2.99114 1.14235 3.57614 1.11576C4.20862 1.08667 4.39861 1.08086 6.00024 1.08086C7.60187 1.08086 7.79206 1.08715 8.42506 1.11576C9.01006 1.1424 9.32749 1.24056 9.53933 1.32216C9.81947 1.43074 10.0193 1.5611 10.2295 1.77096C10.4397 1.98082 10.5693 2.18098 10.6783 2.4611C10.7607 2.6723 10.8581 2.99035 10.8847 3.57533C10.9138 4.2083 10.9196 4.39776 10.9196 6.00005C10.9196 7.60234 10.9138 7.79179 10.8847 8.42477C10.8581 9.00974 10.7602 9.3277 10.6783 9.53899C10.5693 9.81912 10.4394 10.019 10.2295 10.2287C10.0196 10.4383 9.81947 10.5684 9.53933 10.6775C9.32812 10.7598 9.01006 10.8573 8.42506 10.8839C7.79258 10.9129 7.60259 10.9188 6.00024 10.9188C4.39789 10.9188 4.20842 10.9129 3.57614 10.8839V10.8839ZM3.52646 0.036336C2.8877 0.065424 2.45122 0.166704 2.07003 0.315024C1.67527 0.468192 1.34108 0.67368 1.00713 1.00709C0.673179 1.3405 0.468211 1.6752 0.315037 2.06995C0.166711 2.45136 0.0654266 2.88758 0.0363375 3.52632C0.00676827 4.16606 0 4.37059 0 6C0 7.62941 0.00676827 7.83394 0.0363375 8.47368C0.0654266 9.11246 0.166711 9.54864 0.315037 9.93005C0.468211 10.3246 0.673227 10.6596 1.00713 10.9929C1.34103 11.3262 1.67527 11.5314 2.07003 11.685C2.45194 11.8333 2.8877 11.9346 3.52646 11.9637C4.16657 11.9928 4.37077 12 6.00024 12C7.62971 12 7.83425 11.9932 8.47402 11.9637C9.11283 11.9346 9.54902 11.8333 9.93045 11.685C10.325 11.5314 10.6594 11.3263 10.9934 10.9929C11.3273 10.6595 11.5318 10.3246 11.6854 9.93005C11.8338 9.54864 11.9355 9.11242 11.9641 8.47368C11.9932 7.83346 12 7.62941 12 6C12 4.37059 11.9932 4.16606 11.9641 3.52632C11.9351 2.88754 11.8338 2.45112 11.6854 2.06995C11.5318 1.67544 11.3268 1.34102 10.9934 1.00709C10.6599 0.673152 10.325 0.468192 9.93093 0.315024C9.54902 0.166704 9.11278 0.064944 8.4745 0.036336C7.83473 0.007248 7.63019 0 6.00072 0C4.37125 0 4.16657 0.006768 3.52646 0.036336Z" fill="white"/>
</svg>

<svg width="12" height="12" fill="none" xmlns="http://www.w3.org/2000/svg"><path d="M4 6a2 2 0 114 0 2 2 0 01-4 0zM2.92 6a3.08 3.08 0 106.16 0 3.08 3.08 0 00-6.162 0zm5.563-3.203a.72.72 0 10.72-.72.72.72 0 00-.72.72zm-4.907 8.087c-.585-.027-.903-.124-1.114-.207a1.872 1.872 0 01-.69-.448c-.21-.21-.34-.41-.45-.69-.081-.211-.179-.53-.206-1.114-.029-.633-.034-.823-.034-2.425 0-1.602.006-1.792.034-2.425.027-.585.125-.902.207-1.114.109-.28.239-.48.449-.69.21-.21.41-.34.69-.449.211-.082.53-.18 1.114-.206C4.21 1.086 4.4 1.08 6 1.08c1.602 0 1.792.006 2.425.035.585.026.902.125 1.114.206.28.109.48.24.69.449.21.21.34.41.45.69.082.211.18.53.206 1.114.029.633.035.823.035 2.425 0 1.602-.006 1.792-.035 2.425-.027.585-.125.903-.207 1.114-.109.28-.239.48-.449.69-.21.21-.41.34-.69.449-.21.082-.529.18-1.114.206-.632.029-.822.035-2.425.035-1.602 0-1.792-.006-2.424-.035zM3.526.036c-.638.03-1.075.13-1.456.279a2.943 2.943 0 00-1.063.692A2.932 2.932 0 00.315 2.07c-.148.381-.25.818-.279 1.456C.006 4.166 0 4.371 0 6c0 1.63.007 1.834.036 2.474.03.638.13 1.075.279 1.456.153.395.358.73.692 1.063a2.95 2.95 0 001.063.692c.382.148.818.25 1.456.279.64.029.845.036 2.474.036 1.63 0 1.834-.007 2.474-.036.639-.03 1.075-.13 1.456-.279a2.951 2.951 0 001.063-.692 2.94 2.94 0 00.692-1.063c.149-.381.25-.818.28-1.456.028-.64.035-.845.035-2.474 0-1.63-.007-1.834-.036-2.474-.029-.638-.13-1.075-.279-1.456a2.95 2.95 0 00-.692-1.063A2.937 2.937 0 009.931.315C9.549.167 9.113.065 8.475.036 7.835.007 7.63 0 6 0 4.37 0 4.167.007 3.526.036z" fill="#fff"/></svg>
